Catalina-light/actions/16/format-indent-less-symbolic.svg

<?xml version="1.0" encoding="UTF-8" standalone="no"?>
<svg
   xmlns:dc="http://purl.org/dc/elements/1.1/"
   xmlns:cc="http://creativecommons.org/ns#"
   xmlns:rdf="http://www.w3.org/1999/02/22-rdf-syntax-ns#"
   xmlns:svg="http://www.w3.org/2000/svg"
   xmlns="http://www.w3.org/2000/svg"
   xmlns:sodipodi="http://sodipodi.sourceforge.net/DTD/sodipodi-0.dtd"
   xmlns:inkscape="http://www.inkscape.org/namespaces/inkscape"
   viewBox="0 0 16 16"
   id="svg2"
   version="1.1"
   inkscape:version="0.91 r13725"
   sodipodi:docname="format-indent-less-symbolic.svg">
  <metadata
     id="metadata10">
    <rdf:RDF>
      <cc:Work
         rdf:about="">
        <dc:format>image/svg+xml</dc:format>
        <dc:type
           rdf:resource="http://purl.org/dc/dcmitype/StillImage" />
      </cc:Work>
    </rdf:RDF>
  </metadata>
  <sodipodi:namedview
     pagecolor="#ffffff"
     bordercolor="#666666"
     borderopacity="1"
     objecttolerance="10"
     gridtolerance="10"
     guidetolerance="10"
     inkscape:pageopacity="0"
     inkscape:pageshadow="2"
     inkscape:window-width="640"
     inkscape:window-height="480"
     id="namedview8"
     showgrid="false"
     inkscape:zoom="29.123961"
     inkscape:cx="2.2331015"
     inkscape:cy="7.3329918"
     inkscape:current-layer="svg2" />
  <defs
     id="defs3051">
    <style
       type="text/css"
       id="current-color-scheme">
      .ColorScheme-Text {
        color:#bebebe;
      }
      </style>
  </defs>
  <path
     style="color:#bebebe;fill:currentColor;fill-opacity:1;stroke:none"
     class="ColorScheme-Text"
     d="m 2,2 0,1.7142857 12,0 L 14,2 2,2 Z m 0,3.4285714 0,1.7142857 6.8571429,0.00335 0,-1.7142857 L 2,5.4285714 Z M 14,5.4319196 9.7142857,8.0033482 14,10.574777 14,5.4319196 Z m -12,3.4252233 0,1.7142861 6.8571429,0 0,-1.7142861 -6.8571429,0 z M 2,12.285714 2,14 l 12,0 0,-1.714286 -12,0 z"
     id="path6"
     inkscape:connector-curvature="0" />
</svg>

<svg version="1.1" viewBox="0 0 16 16" xmlns="http://www.w3.org/2000/svg">
<defs>
<style id="current-color-scheme" type="text/css">.ColorScheme-Text {
        color:#363636;
      }</style>
</defs>
<path class="ColorScheme-Text" d="m2 2v1.7143h12v-1.7143h-12zm0 3.4286v1.7143l6.8571 0.00335v-1.7143l-6.8571-0.00335zm12 0.0033482-4.2857 2.5714 4.2857 2.5714v-5.1429zm-12 3.4252v1.7143h6.8571v-1.7143h-6.8571zm0 3.4286v1.7143h12v-1.7143h-12z" color="#363636" fill="#363636"/>
</svg>
